X: 1
T: Getabocksdansen
T: Peckere-Gutens vals
O: Sverige
R: waltz
Z: 2009 John Chambers <jc:trillian.mit.edu>
F: http://www.nordlek.fi/dokum/Getabocksdansen_noter.pdf
M: 3/4
L: 1/8
K: D
AG \
| "D"F2 DF Ad | "A7"c2 Ac e2 | "A7"gf ed cd | "A7"ed cB AG \
| "D"F2 DF Ad | "A7"c2 Ac e2 | "A7"gf ed ce |1 "D"d4 :|2 "D"d4 df |]
|:"D"a2 a>a aa | "D"a2 fd fa | "A7"g2 gg gg | "A7"g2 ec eg \
| "D"f2 d2 .A2 | "D"F2 DF Ad | "A7"c2 Ac ec |1 "D"d3 Adf :|2 "D"d4 |]
